X:1
T:James Gibb editions
T:Amor io sento l'alma - Verdelot
T:#
%%score [ 1 2 3 4 ]
L:1/8
Q:1/4=120
M:4/4
K:C
V:1 treble nm="Soprano" snm="S"
V:2 treble nm="Alto" snm="A"
V:3 treble-8 nm="Tenor" snm="T"
V:4 bass nm="Bass" snm="B"
V:1
"^Amor io sento l'alma""^Phillipe Verdelot\n(1485-1552)""^Niccolò Machiavelli\n(1469-1527)" c8 | %1
w: A-|
 c4 c4 | B2 A2 B4 | G4 z2 G2 | A3 G F2 E2 | D4 D2 G2 | G2 G2 G2 G2 |[M:4/4] A3 G F2 E2 | D4 C2 c2 | %9
w: mor io|sen- to l'al-|ma Tor-|nar' nel fo- c'o-|v'i- o Fu|lie- t'et più che|mai d'ar- der de-|si- o, et|
 d2 e2 f3 e | d2 (c3 B/A/) B2 | !fermata!c8 | c4 c2 c2 | d2 d2 e4 | c2 e2 d2 c2 | c2 B2 c4 | %16
w: più che mai d'ar-|der de\- * * si-|o.|S'tu mi rae-|cen- d'il co-|re, Et io ne|son con- ten-|
 B4 z2 B2 | B2 B2 B2 B2 | A2 B2 c2 B2 | (A3 GAB A2) | G4 z2 B2 | c3 B A2 G2 | A4 G2 G2 | %23
w: ta Et|ri- tor- n'hu- mil-|men- t'al gio- gh'an-|ti\- * * * *|co O-|pra- ch'el mio sig-|no- re Par-|
 G2 G2 ^F2 (G2 | G^F/E/) F2 G4 | d4 d2 c2 | d4 B4 | c2 c2 B2 A2 | B4 G4 | z2 G2 A3 G | F2 E2 D4 | %31
w: re del fo- co|* * * sen- ta|O- v'io dol-|c'ar- do~~ci|mei pen- sier' nu-|tri- co;|Fa che pon-|ga~in ob- li-|
 D2 G2 G2 G2 | G2 G2 A3 G | F2 E2 D4 | C2 c2 d2 e2 | f3 e d2 (c2- | cB/A/) B2[Q:1/4=118] c4- | %37
w: o Mia fu gh'e|dil- li~~e mio no-|vo de- si-|o, e dil- li~~e|mio no- vo de\-|* * * si o.|
[Q:1/4=114] c8 |[Q:1/4=109] c8 |[Q:1/4=104] c8 |[Q:1/4=102] c8 |] %41
w: ||||
V:2
 G8 | A4 (F3 E) | D2 C2 D4 | C4 z2 E2 | F3 E D2 G2 | G4 G2 E2 | E2 E2 D2 B,2 | %7
w: A-|mor io *|sen- to l'al-|ma Tor-|nar' nel fo- c'o-|v'i- o Fu|lie- t'et più che|
[M:4/4] C2 A,2 _B,2 G,2 | G4 E2 E2 | D2 B,2 C2 A,2 | _B,2 G,2 G4 | !fermata!E8 | E4 F2 G2 | %13
w: mai d'ar- der de-|si- o, et|più che mai d'ar-|der de- si-|o.|S'tu mi rae-|
 F2 F2 (EDEF) | G2 E2 F2 G2 | A2 (G3 ^F/^E/) F2 | G4 z2 D2 | D2 D2 D2 D2 | D2 D2 F2 D2 | D8 | %20
w: cen- d'il co\- * * *|re, Et io ne|son con\- * * ten-|ta Et|ri- tor- n'hu- mil-|men- t'al gio- gh'an-|\-ti-|
 D4 z2 D2 | F3 D D2 B,2 | D4 D2 E2 | E2 E2 D2 C2 | D4 D4 | z2 B,2 A,2 (G,2 | A,4) G,2 G2 | %27
w: co O-|pra- ch'el mio sig-|no- re Par-|re del fo- co|sen- ta|O- v'io dol\-|* c'ar- do~~ci|
 A2 A2 G2 F2 | G4 E4 | z2 E2 F3 E | D2 G2 G4 | G2 E2 E2 E2 | D2 B,2 C2 A,2 | _B,2 G,2 G4 | %34
w: mei pen- sier' nu-|tri- co;|Fa che pon-|ga~in ob- li|o Mia fu- gh'e|dil- li~~e mio no-|vo de- si-|
 E2 E2 D2 B,2 | C2 A,2 _B,2 G,2 | G4 E4 | z2 E2 E2 E2 | C3 B, A,2 G,2 | A,4 G,4- | G,8 |] %41
w: o, e dil- li~~e|mio no- vo de-|si- o,|e dil- li~~e|mio no- vo de-|si- o.||
V:3
 e8 | f4 a4 | g2 f2 g4 | e4 z2 c2 | c2 c2 A2 c2 | (c2 BA) B2 c2 | G2 c2 d2 e2 | %7
w: A-|mor io|sen- to l'al-|ma Tor-|nar' nel fo- c'o-|v'i\- * * o Fu|lie- t'et più che|
[M:4/4][K:treble-8] f3 e d2 (c2- | cB/A/) B2 c2 g2 | g2 g2 a3 g | f2 e2 d4 | !fermata!c8 | %12
w: mai d'ar- der de\-|* * * si- o, et|più che mai d'ar-|der de- si-|o.|
 G4 A2 c2 | c2 B2 (cBcd) | e2 g2 f2 e2 | d2 d2 c4 | d4 z2 g2 | g2 g2 g2 g2 | f2 g2 a2 g2 | %19
w: S'tu mi rae-|cen- d'il co\- * * *|re, Et io ne|son con- ten-|ta Et|ri- tor- n'hu- mil-|men- t'al gio- gh'an-|
 (^f3 e f g2 f) | g4 z2 g2 | a3 g f2 g2- | g2 ^f2 g2 G2 | c3 B A2 G2 | A4 G2 (GA | Bcde) f2 (g2- | %26
w: ti\- * * * *|co O-|pra- ch'el mio sig\-|* no- re Par-|re del fo- co|sen- ta O\- *|* * * * v'io dol\-|
 g2 ^f2) g2 d2 | f3 e d2 c2 | d4 c4 | z2 c2 c2 c2 | A2 c4 (BA) | B2 c2 G2 c2 | d2 e2 f3 e | %33
w: * * c'ar- do~ci|mei pen- sier' nu-|tri- co;|Fa che pon-|ga~in ob- li\- *|o Mia fu- gh'e|dil- li~~e mio no-|
 d2 (c3 B/A/) B2 | c2 g2 g2 g2 | a3 g f2 e2 | d4 c4 | z2 g2 g2 g2 | a3 g f2 e2 | f4 e4- | e8 |] %41
w: vo de\- * * si-|o, e dil- li~~e|mio no- vo de-|si- o,|e dil- li~~e|mio no- vo de-|si- o.||
V:4
 C8 | F,4 F,4 | G,2 A,2 G,4 | C,4 z2 C,2 | F,3 C, D,2 C,2 | G,4 G,2 C,2 | C,2 C,2 G,2 G,2 | %7
w: A-|mor io|sen- to l'al-|ma Tor-|nar' nel fo- c'o-|v'i- o Fu|lie- t'et più che|
[M:4/4] F,2 F,2 _B,,2 C,2 | G,4 C,2 C,2 | G,2 G,2 F,2 F,2 | _B,,2 C,2 G,4 | !fermata!C,8 | %12
w: mai d'ar- der de-|si- o, et|più che mai d'ar-|der de- si-|o.|
 C,4 F,2 E,2 | D,2 D,2 C,4 | C,2 C,2 D,2 E,2 | F,2 G,2 A,4 | G,4 z2 G,2 | G,2 G,2 G,2 G,2 | %18
w: S'tu mi rae-|cen- d'il co-|re, Et io ne|son con- ten-|ta Et|ri tor n'hu mil|
 D,2 G,2 F,2 G,2 | D,8 | G,4 z2 G,2 | F,3 G, D,2 E,2 | D,4 G,2 E,2 | C,2 C,2 D,2 E,2 | D,4 G,4 | %25
w: men t'al gio gh'an|ti-|co O-|pra- ch'el mio sig-|no- re Par-|re del fo- co|sen- ta|
 z2 G,2 F,2 E,2 | D,4 G,4 | F,2 F,2 G,2 A,2 | G,4 C,4 | z2 C,2 F,3 C, | D,2 C,2 G,4 | %31
w: O- v'io dol-|c'ar- do~ci|mei pen- sier' nu-|tri- co;|Fa che pon-|ga~in ob- li-|
 G,2 C,2 C,2 C,2 | G,2 G,2 F,2 F,2 | _B,,2 C,2 G,4 | C,2 C,2 G,2 G,2 | F,2 F,2 _B,,2 C,2 | %36
w: o Mia fu- gh'e|dil- li~~e mio no-|vo de- si-|o, e dil- li~~e|mio no- vo de-|
 G,4 C,4 | z2 C2 C2 C2 | F,3 F, F,2 C,2 | F,4 C,4- | C,8 |] %41
w: si- o,|e dil- li~~e|mio no- vo de-|si- o.||

